!!!COM: Charles Gounod
!!!CNT: Francais
!!!TXO: Francais
!!!OTL: Se/re/nade
!!!LYR: Victor Hugo
!!!ENC: Jacob Pegg
!!!YOR: Romantic French Song 1830-1870 -David Tunley, ed.,
!!!YOR: New York: Garland Publishing, Inc., 1995, Vol. 5
!!!ODT: 1857/
!!NB: Vocal melody and text only encoded.
!!NB: First instance of melodic material only encoded.
**kern	**silbe
*clef G2	*
*k[b-]	*
*M6/8	*
*MM90	*
!!no tempo indication -- best guess
!!created: 6/17/03 19:55
!!proofed and posted: 7/21/03 23:52
=7	=7
8r	.
{8a	{Quand
8b-	tu
[4.cc	chan-
=8	=8
8cc]	|
8dd	-tes,
8a	ber-
8cc	-ce/-
8b-}	-e}
{8g	{Le
=9	=9
4.f	soir
8g	en-
8a	-tre
8g	mes
=10	=10
[2.c	bras,
=11	=11
8c]}	|}
8r	.
8r	.
4r	.
8r	.
=12	=12
8r	.
{8a	{En-
8b-	-tends~
[4.cc	~tu
=13	=13
8cc]	|
8dd	ma
8a	pen-
8cc	-se/-
8b-}	-e}
{8g	{Qui
=14	=14
(8f	te
16gq	|
16fq	|
8e	|
8f)	re/-
4g	-pond
(64bnq	tout
8a)	|
=15	=15
[2.g	bas?
=16	=16
8g]}	|}
8r	.
8r	.
4r	.
8r	.
=17	=17
8r	.
{8g	{Ton
8a	doux
8bn	chant
8cc	me
8dd	ra-
=18	=18
(8ee	-pel-
8cc)	|
8a	|
8g}	-le}
{8f	{Les
8d	plus
=19	=19
8c	beaux
8e	de
8a	mes
[4.g	jours.
=20	=20
4.g_	|
8g]}	|}
8r	.
8r	.
=21	=21
{[2.cc	{Ah!
=22	=22
4.cc_	|
8cc]}	|}
8r	.
{8c	{Chan-
=23	=23
4a	-tez,
8a	chan-
(8b-	-tez,
16ccq	|
16b-q	|
8a)	|
8g	ma
=24	=24
(16f	bel-
16g	|
16a	|
16b-	|
16cc	|
16dd)	|
8cc}	-le}
8r	.
{8c	{chan-
=25	=25
4a	-tez
8a	chan-
(8b-	-tez
16ccq	|
16b-q	|
8a)	|
8g	tou-
=26	=26
[4.cc	-jours
8cc]}	|}
8r	.
{8cc	{chan-
=27	=27
[2.ff	-tez
=28	=28
4ff]	|
8b-	chan-
4cc	-tez,
8dd	ma
=29	=29
8f	bel-
8a}	-le}
{8cc	{chan-
4a	-tez
(24g	tou-
24a	|
24g)	|
=30	=30
4f}	-jours!}
8r	.
8r	.
{(16c	{chan-
16e	|
16g	|
16b-)	|
=31	=31
(8a	-tez
4cc)}	|}
8r	.
{(16c	{ma-
16e	|
16g	|
16b-)	|
=32	=32
8a	bel-
4cc}	-le}
8r	.
{(16c	{chan-
16e	|
16g	|
16b-)	|
=33	=33
(16dd	-tez
16cc	|
16b-	|
16g	|
16e	|
16c)	|
(16e	tou-
16g	|
16b-	|
16cc	|
16ee	|
16gg)	|
=34	=34
[2.ff	-jours!
=35	=35
2.ff_	|
=36	=36
8ff]}	|}
8r	.
8r	.
4r	.
8r	.
*-	*-
